static/images/nestjs_stack_logo.svg

<svg fill="none" height="89" viewBox="0 0 134 89" width="134" xmlns="http://www.w3.org/2000/svg" xmlns:xlink="http://www.w3.org/1999/xlink"><linearGradient id="a"><stop offset="0" stop-color="#fff"/><stop offset="1" stop-color="#fff" stop-opacity="0"/></linearGradient><linearGradient id="b" gradientUnits="userSpaceOnUse" x1="72.9119" x2="83.9563" xlink:href="#a" y1="60.2452" y2="73.9341"/><linearGradient id="c" gradientUnits="userSpaceOnUse" x1="76.644" x2="76.5815" xlink:href="#a" y1="40.8008" y2="57.2508"/><mask id="d" height="56" maskUnits="userSpaceOnUse" width="56" x="39" y="24"><path d="m67 80c15.464 0 28-12.536 28-28s-12.536-28-28-28-28 12.536-28 28 12.536 28 28 28z" fill="#000"/></mask><path d="m0 0h134v89h-134z" fill="#fff"/><g mask="url(#d)"><path d="m67 80c15.464 0 28-12.536 28-28s-12.536-28-28-28-28 12.536-28 28 12.536 28 28 28z" fill="#000"/><path d="m85.5144 73.007-25.0028-32.2062h-4.7108v22.3906h3.7687v-17.6046l22.9865 29.6991c1.0373-.6941 2.0254-1.456 2.9584-2.2789z" fill="url(#b)"/><path d="m78.5107 40.8008h-3.7334v22.4h3.7334z" fill="url(#c)"/></g></svg>

<svg width="134" height="89" viewBox="0 0 134 89" fill="none" xmlns="http://www.w3.org/2000/svg">
<rect width="134" height="89" fill="white"/>
<mask id="mask0_6206_700" style="mask-type:alpha" maskUnits="userSpaceOnUse" x="39" y="24" width="56" height="56">
<path d="M67 80C82.464 80 95 67.464 95 52C95 36.536 82.464 24 67 24C51.536 24 39 36.536 39 52C39 67.464 51.536 80 67 80Z" fill="black"/>
</mask>
<g mask="url(#mask0_6206_700)">
<path d="M67 80C82.464 80 95 67.464 95 52C95 36.536 82.464 24 67 24C51.536 24 39 36.536 39 52C39 67.464 51.536 80 67 80Z" fill="black"/>
<path d="M85.5144 73.007L60.5116 40.8008H55.8008V63.1914H59.5695V45.5868L82.556 75.2859C83.5933 74.5918 84.5814 73.8299 85.5144 73.007Z" fill="url(#paint0_linear_6206_700)"/>
<path d="M78.5107 40.8008H74.7773V63.2008H78.5107V40.8008Z" fill="url(#paint1_linear_6206_700)"/>
</g>
<defs>
<linearGradient id="paint0_linear_6206_700" x1="72.9119" y1="60.2452" x2="83.9563" y2="73.9341" gradientUnits="userSpaceOnUse">
<stop stop-color="white"/>
<stop offset="1" stop-color="white" stop-opacity="0"/>
</linearGradient>
<linearGradient id="paint1_linear_6206_700" x1="76.644" y1="40.8008" x2="76.5815" y2="57.2508" gradientUnits="userSpaceOnUse">
<stop stop-color="white"/>
<stop offset="1" stop-color="white" stop-opacity="0"/>
</linearGradient>
</defs>
</svg>
